X: 129
T:Scottish Ramble
K:A
M:C
L:1/8
||:E/|"A"A/2A/2A A>c d>cA>c|E7"B/2B/2B G>B d2 c>B|"A"A/2A/2A A>c e>"E7"d
d>B|"A
"c>e "E7"B>c "A"A/2A/2A A>E|!
"A"A/2A/2A A>c d>cA>c|"E7"B/2B/2B G>B d2 c>B|"A"A/2A/2A A>c e>c "E7"d>B|
"A"c>e
 "E7"B>c "A"A/2A/2A A3:||
% <A name="D1X130">
